X:1
T:Tra Ninfe
T:Tra Ninfe
T:Giovanni Maria Artusi
T:Source : Canzonette a 4 voci---Libro primo---Venetia-G.Vincenti---1598. Editor: André Vierendeels (18/02/14).
T:Notes : Original clefs : G2, G2, C2, C3 Editorial accidentals above tha staff
C:Giovanni Maria Artusi
%%score [ 1 2 3 4 ]
L:1/8
Q:1/4=120
M:4/4
K:F
V:1 treble nm="Canto1" snm="C1"
V:2 treble nm="Canto2" snm="C2"
V:3 treble nm="Alto" snm="A"
V:4 treble-8 nm="Tenor" snm="T"
V:1
 z8 | z8 | z4 d4 | dc BA GA Bc | dc BA BA Bc | d6 d2 | d4 d4 | d8 | d8 | z4 d4 | d2 d2 c4- | %11
w: ||Can-|tiam _ _ _ _ _ _ _|_ _ _ _ _ _ _ _|* la|bel- la|Clo-|ri,|tra|Nin- f'e tra|
 c2 B2 A4 | B2 d2 dc BA | GA Bc d4 | G2 F4 GA | B4 A2 G2 | A2 B2 A4 | =B8 | d4 d2 d2 | d6 c2 | %20
w: _ pa- sto-|ri, can- tiam _ _ _|_ _ _ _ _|la bel- * *|* la, la|bel- la clo-|ri,|che port' ogn'|hor nel|
 c6 d2 | c4 c4 | d2 f4 ed | ed cB A2 A2 | G2 B2 _e4 | d2 cB A2 G2 | A2 Bc d4 | d8 | B4 B2 B2 | %29
w: vi- *|* so,|di- pin- * *|* * * * * t'il|Pa- ra- di-|||so,|che port' ogn'|
 B4 z4 | z4 z2 B2 | G4 A4 | B2 dc BA B2 | G2 g2 fe dc | B2 G2 c3 B | A2 Bc d4- | d2 cB A4 | =B8 |] %38
w: hor|nel|vi- so,|di- pin _ _ _ _|to,- di- pin- * * *|* t'il Pa- ra-|di- * * *||so.|
V:2
 z4 d4 | d2 d2 c4- | c2 B2 A4 | B2 d2 dc BA | GA Bc d4 | G2 F4 GA | B4 A2 G2 | A2 B2 A4 | =B8 | %9
w: Tra|Nin- f'e tra|_ Pa- sto-|ri, can- tiam _ _ _|_ _ _ _ _|la bel- * *|* la, la|bel- la Clo-|ri,|
 z8 | z8 | z4 d4 | dc BA GA Bc | dc BA BA Bc | d6 d2 | d4 d4 | d8 | d8 | B4 B2 B2 | B4 z4 | %20
w: ||can-|tiam _ _ _ _ _ _ _|_ _ _ _ _ _ _ _|* la|bel- la|Clo-|ri,|che port' ogn'|hor|
 z4 z2 B2 | G4 A4 | B2 dc BA B2 | G2 g2 fe dc | B2 G2 c3 B | A2 Bc d4- | d2 cB A4 | =B8 | %28
w: nel|vi- so,|di- pin- * * * *|to, di- pin- * * *|* t'il Pa- ra-|di- * * *||so,|
 d4 d2 d2 | d6 d2 | c6 d2 | c4 c4 | d2 f4 ed | ed cB A2 A2 | G2 B2 _e4 | d2 cB A2 G2 | A2 Bc d4 | %37
w: che port' ogn'|hor nel|vi- *|* so,|di- pin- * *|* * * * * t'il|Pa- ra- di-|||
 d8 |] %38
w: so.|
V:3
 B4 B2 B2 | A6 G2 | ^F2 G4 F2 | G4 D4 | z2 G2 GF GA | B2 AG F4 | G4 F2 B2 | A2 G4 ^F2 | G8 | %9
w: Tra Nin- f'e|tra Pa-|sto- * *|* ri,|can- tiam _ _ _|_ _ _ _|la bel- la|Clo- * *|ri,|
"^b""^b""^b" B4 B2 B2 | A6 G2 | ^F2 G4 F2 | G4 D4 | z2 G2 GF GA | B2 AG F4 | G4 F2 B2 | A2 G4 ^F2 | %17
w: tra Nin- f'e|tra Pa-|sto- * *|* ri,|can- tiam _ _ _|_ _ _ _|la bel- la|Clo- * *|
 G8 |"^-natural""^-natural""^-natural" F4 F2 F2 | F6 A2 | A2 GF E2 F2- | F2 E2 F4 | F2 D4 G2 | %23
w: ri,|che port' ogn'|hor nel|vi- * * * *|* * so,|di- pin- t'il|
 E2 E2 F4 | G8 | F6 G2- | G2 ^F2 F4 | G8 |"^-natural""^-natural""^-natural" F4 F2 F2 | F6 A2 | %30
w: Pa- ra- di-|so,|il Pa-|* ra- di-|so,|che port' ogn'-|hor nel|
 A2 GF E2 F2- | F2 E2 F4 | F2 D4 G2 | E2 E2 F4 | G8 | F6 G2- | G2 ^F2 F4 | G8 |] %38
w: vi- * * * *|* * so,|di- pin- t'il|Pa- ra- di-|so,|il Pa-|* ra- di-|so.|
V:4
 g4 g2 g2 | f6 e2 | d8 | G8 | z8 | z2 d2 dc BA | GA Bc d2 G2 | ^F2 G2 d4 | G8 | g4 g2 g2 | f6 e2 | %11
w: Tra Nin- f'e|tra Pa-|sto-|ri,||can- tam _ _ _|_ _ _ _ _ la|bel- la Clo-|ri,|tra Nin- f'e|tra Pa-|
 d8 | G8 | z8 | z2 d2 dc BA | GA Bc d2 G2 | ^F2 G2 d4 | G8 | B4 B2 B2 | B6 f2 | f2 ed c2 B2 | %21
w: sto-|ri,||can- tiam _ _ _|_ _ _ _ _ la|bel- la Clo-|ri,|che port' ogn'|hor nel|vi- * * * *|
 c4 F4 | B8 | c4 d4 | _e4 c4 | d8- | d8 | G8 | B4 B2 B2 | B6 f2 | f2 ed c2 B2 | c4 F4 | B8 | %33
w: * so,|di-|pin- t'il|Pa- ra-|di-||so,|che port' ogn'|hor nel|vi- * * * *|* so,|di|
 c4 d4 | _e4 c4 | d8- | d8 | G8 |] %38
w: pin- t'il|Pa- ra-|di-||so.|

